SFASUI/public/images/iconstart95.svg

<svg width="20" height="21" viewBox="0 0 20 21" fill="none" xmlns="http://www.w3.org/2000/svg">
<path fill-rule="evenodd" clip-rule="evenodd" d="M9.99984 3C9.11578 3 8.26794 3.35119 7.64281 3.97631C7.01769 4.60143 6.6665 5.44928 6.6665 6.33333V8.83333H13.3332V6.33333C13.3332 5.44928 12.982 4.60143 12.3569 3.97631C11.7317 3.35119 10.8839 3 9.99984 3ZM14.9998 8.83333V6.33333C14.9998 5.00725 14.4731 3.73548 13.5354 2.7978C12.5977 1.86012 11.3259 1.33333 9.99984 1.33333C8.67376 1.33333 7.40199 1.86012 6.4643 2.7978C5.52662 3.73548 4.99984 5.00725 4.99984 6.33333V8.83333H4.1665C2.78579 8.83333 1.6665 9.95262 1.6665 11.3333V17.1667C1.6665 18.5474 2.78579 19.6667 4.1665 19.6667H15.8332C17.2139 19.6667 18.3332 18.5474 18.3332 17.1667V11.3333C18.3332 9.95262 17.2139 8.83333 15.8332 8.83333H14.9998ZM4.1665 10.5C3.70627 10.5 3.33317 10.8731 3.33317 11.3333V17.1667C3.33317 17.6269 3.70627 18 4.1665 18H15.8332C16.2934 18 16.6665 17.6269 16.6665 17.1667V11.3333C16.6665 10.8731 16.2934 10.5 15.8332 10.5H4.1665Z" fill="#202020"/>
</svg>

<svg width="20" height="21" fill="none" xmlns="http://www.w3.org/2000/svg"><path fill-rule="evenodd" clip-rule="evenodd" d="M10 3a3.333 3.333 0 0 0-3.333 3.333v2.5h6.666v-2.5A3.333 3.333 0 0 0 10 3Zm5 5.833v-2.5a5 5 0 1 0-10 0v2.5h-.833a2.5 2.5 0 0 0-2.5 2.5v5.834a2.5 2.5 0 0 0 2.5 2.5h11.666a2.5 2.5 0 0 0 2.5-2.5v-5.834a2.5 2.5 0 0 0-2.5-2.5H15ZM4.166 10.5a.833.833 0 0 0-.833.833v5.834c0 .46.373.833.833.833h11.667c.46 0 .833-.373.833-.833v-5.834a.833.833 0 0 0-.833-.833H4.167Z" fill="#202020"/></svg>
